X:1
T:Title
%%score { ( 1 3 ) | ( 2 4 ) }
L:1/8
Q:1/4=120
M:4/4
K:Ab
V:1 treble nm="Grand Piano"
V:3 treble 
V:2 bass 
V:4 bass 
V:1
 [CE]2 | [CE]2 [CE][DF] [CE]2 [Ec]2 | [Ec]3 [DB] [CA]4 | [CA]2 [CA]2 [=DA]2 GA | [EB]6 [Dc][Fd] | %5
 [Ee]2 [Ec][DB] [CA]2 AG | F2 [EA]2 [Dd]2 cB | [Ec]4 [DB]4 | [CA]4 z2 [CE][CE] | %9
 [CE]3 [DF] [CE]2 [Ec]2 | [Ec]3 [DB] [CA]4 | [CA]2 [CA]2 [=DA]2 GA | [EB]6 [Ec][Fd] | %13
 [Ee]2 [Ec][DB] [CA]2 AG | F2 [EA]2 [Dd]2 cB | [Ec]4 [DB]4 |[M:3/4] [CA]6 |] %17
V:2
 [A,,E,]2 | [A,,A,]2 [A,,A,][D,,A,] A,2 [A,,A,]2 | [E,,A,]3 [E,,G,] [A,,A,]4 | %3
 [F,A,]2 [F,A,]2 [B,,F,]2 [B,,F,]2 | [E,G,]6 [E,A,][D,A,] | [C,A,]2 [E,A,][E,G,] [F,A,]2 [C,A,]2 | %6
 [D,A,]2 [C,A,]2 [B,,B,]2 [D,A,]2 | [E,A,]2 E,2 E,2- [E,G,]2 | [A,,A,]4 z2 [A,,E,][A,,E,] | %9
 [A,,A,]3 [D,A,] A,2 [A,,A,]2 | [E,A,]3 [E,G,] [A,,A,]4 | [F,A,]2 [F,A,]2 [B,,F,]2 [B,,F,]2 | %12
 [E,G,]6 [E,A,][D,A,] | [C,A,]2 [E,A,][E,G,] [F,A,]2 [C,A,]2 | [D,A,]2 [C,A,]2 [B,,B,]2 [D,A,]2 | %15
 [E,A,]2 E,2 E,2- [E,G,]2 |[M:3/4] [A,,A,]6 |] %17
V:3
 x2 | x8 | x8 | z4 z2 =D2 | x8 | z4 z2 E2 | z4 z2 F2 | x8 | x8 | x8 | x8 | z4 z2 =D2 | x8 | %13
 z4 z2 E2 | z4 z2 F2 | x8 |[M:3/4] x6 |] %17
V:4
 x2 | x8 | x8 | x8 | x8 | x8 | x8 | z4 F,2 z2 | x8 | x8 | x8 | x8 | x8 | x8 | x8 | z4 F,2 z2 | %16
[M:3/4] x6 |] %17

